X: 7213
T: City Of Savannah
R: hornpipe
M: 4/4
K: Dmajor
dB|AD FA df af|ga ba gf ed|cd ed cd Bd|~A2 ^GA =GA FG|
~A2 FA df af|gz ba gf ed|cd Bd AF GE|FA Ec d2:|f2|:
e2 ce ae c'e|be ^ge ae c'e|fe ce ac' ea|^gb e^g a2 ba|
~a3 ^ga =ge c'a|~a2 ge fd az|(3gag ~A2 (3faf ~A2|(3eae (3ABc d2:|

